X: 6
T:Robin Hood and the Stranger
M:6/4
L:1/4
S:The Jovial Crew (Ballad Opera) 1731
B:BBBM #395
K:Gm
D|B3/2A/Bc3/2B/A|B3/2c/d^F2F/F/|G3G3|G3/2F/ED2D|\
B3/2A/Bc3/2B/c|(d3d2)d|g^fgd2c|f=efd3/2c/B|\
ABGAG^F|(G3G2|]
